X: 197
T: The Outlaw of the Hills
N:"Slow" "collected by Hartnett"
B:O'Neill's 197
Z:Transcribed by henrik.norbeck@mailbox.swipnet.se
M:C
L:1/8
K:G
c|B2 A>G G2 G>A|(B<c) d>e (d<B) A>G|(B<e) e>f e2 (d>B)|d2 e>f g3 f|
g>a b>a g2 f>g|e<g f>g (d<B) z A|(B<e) e>f e2 (d<B)|(e<a) a>f g>e (d<c)||
B2 A>G G2 G>A|Bd e3/2{G}F/ (e<d) (B>G)|A2 A>A (c<B) z G|A2 G>G G2 z||


